images/menu-max.svg

<svg xmlns="http://www.w3.org/2000/svg" viewBox="0 0 64 64" enable-background="new 0 0 64 64"><style type="text/css">.st0{fill:#C7CBD7;}</style><path class="st0" d="M29.51 34.511c1.222 1.223 3.204 1.223 4.426 0l11.781-11.781v4.01c0 1.729 1.401 3.13 3.13 3.13h.023c1.729 0 3.13-1.401 3.13-3.13v-11.59c0-1.728-1.401-3.129-3.13-3.129h-11.59c-1.729 0-3.129 1.401-3.129 3.129v.024c0 1.729 1.401 3.13 3.129 3.13h4.01l-11.78 11.78c-1.223 1.222-1.223 3.204 0 4.427zM45.423 51.98h-31.246c-1.203 0-2.177-.975-2.177-2.178v-31.246c0-1.203.975-2.177 2.177-2.177h14.207c1.203 0 2.177.974 2.177 2.177s-.975 2.177-2.177 2.177h-12.03v26.891h26.891v-11.213c0-1.203.974-2.177 2.177-2.177s2.177.974 2.177 2.177v13.39c.001 1.204-.973 2.179-2.176 2.179z"/></svg>

<?xml version="1.0" encoding="utf-8"?>
<!-- Generator: Adobe Illustrator 21.0.1, SVG Export Plug-In . SVG Version: 6.00 Build 0)  -->
<svg version="1.1" id="Layer_1" xmlns="http://www.w3.org/2000/svg" xmlns:xlink="http://www.w3.org/1999/xlink" x="0px" y="0px"
	 viewBox="0 0 64 64" style="enable-background:new 0 0 64 64;" xml:space="preserve">
<style type="text/css">
	.st0{fill:#C7CBD7;}
</style>
<path class="st0" d="M29.51,34.511L29.51,34.511c1.222,1.223,3.204,1.223,4.426,0L45.717,22.73v4.01c0,1.729,1.401,3.13,3.13,3.13
	h0.023c1.729,0,3.13-1.401,3.13-3.13V15.15c0-1.728-1.401-3.129-3.13-3.129H37.28c-1.729,0-3.129,1.401-3.129,3.129v0.024
	c0,1.729,1.401,3.13,3.129,3.13h4.01L29.51,30.084C28.287,31.306,28.287,33.288,29.51,34.511z"/>
<path class="st0" d="M45.423,51.98H14.177c-1.203,0-2.177-0.975-2.177-2.178V18.556c0-1.203,0.975-2.177,2.177-2.177h14.207
	c1.203,0,2.177,0.974,2.177,2.177c0,1.203-0.975,2.177-2.177,2.177h-12.03v26.891h26.891V36.411c0-1.203,0.974-2.177,2.177-2.177
	s2.177,0.974,2.177,2.177v13.39C47.6,51.005,46.626,51.98,45.423,51.98z"/>
</svg>
